X:1
T:Title
L:1/4
M:4/4
I:linebreak $
K:G
V:1 treble nm="ddle" snm="ddle"
V:1
 D F A3/2 A | B/A/B/c/ d e | f f g f | e A3 |$ D F A3/2 A | B/A/B/^c/ d g | f d e ^c |1 d2 d2 :| %8
 d3 |$ e | f2 g2 | f/g/f/e/ d e | f f g f | e c B A |$[K:treble-8] f2 g2 | f/g/f/e/ d a | f d e c | %17
 d3 |] %18
